src/pos-icons/format-list-text.svg

<svg height="24" viewBox="0 0 24 24" width="24" xmlns="http://www.w3.org/2000/svg"><path d="m2 14h6v6h-6m14-12h-6v2h6m-14 0h6v-6h-6m8 0v2h12v-2m-12 16h6v-2h-6m0-2h12v-2h-12"/></svg>

<?xml version="1.0" encoding="UTF-8"?><!DOCTYPE svg PUBLIC "-//W3C//DTD SVG 1.1//EN" "http://www.w3.org/Graphics/SVG/1.1/DTD/svg11.dtd"><svg xmlns="http://www.w3.org/2000/svg" xmlns:xlink="http://www.w3.org/1999/xlink" version="1.1" id="mdi-format-list-text" width="24" height="24" viewBox="0 0 24 24"><path d="M2 14H8V20H2M16 8H10V10H16M2 10H8V4H2M10 4V6H22V4M10 20H16V18H10M10 16H22V14H10" /></svg>
